X:119
T:The First Pint
Z:Philippe Murphy 2006-05-25
S:Kevin Crawford, In Good Company
R:jig
M:6/8
L:1/8
K:D
dAB d2A | Bdf efd | B3 ede | faa g2f |
dAB d2A | Bdf efd | B3 edB | AFE DFA ::
B3 BAF | ABc d2B | A3 AFE | EFA DFA |
B3 BAF | ABc d2c | d3 dBA |1 abg efd :|2 abg fge |]
